img/metal.svg

<svg width="171" height="58" viewBox="0 0 171 58" fill="none" xmlns="http://www.w3.org/2000/svg">
<path fill-rule="evenodd" clip-rule="evenodd" d="M86.1742 0C94.7973 0.317023 101.678 7.33725 101.737 15.95C101.8 24.7971 94.5456 32.0754 85.5919 32.1373C76.6383 32.1992 69.2812 25.0271 69.2201 16.1726C69.1605 7.54516 76.0485 0.420246 84.6879 0.00590386L84.7088 4.57693C81.7394 4.77025 78.9563 6.07769 76.9269 8.23265C74.8976 10.3876 73.7749 13.2278 73.7878 16.1741C73.8006 17.8924 74.2017 19.5862 74.9616 21.1311C75.7216 22.676 76.8211 24.0329 78.1797 25.1023L82.591 13.601L79.529 13.6246C79.529 13.6246 78.9244 13.5067 78.5803 13.7898L77.8521 14.4813C77.8521 14.4813 77.7955 12.5866 77.8804 12.386C77.9652 12.1412 78.211 10.245 79.0718 9.2733C79.9281 8.33992 81.3057 8.20869 81.3057 8.20869L91.0993 8.14233L89.686 9.60359L93.0875 24.8207C94.3678 23.7316 95.3933 22.3797 96.0929 20.8588C96.7924 19.3379 97.1492 17.6845 97.1384 16.0133C97.1098 13.0798 95.9571 10.2665 93.9134 8.14236C91.8697 6.0182 89.0876 4.7417 86.1296 4.57103L86.1772 0H86.1742ZM82.4302 9.47973C82.5694 9.47574 82.7046 9.52632 82.8064 9.62047C82.9082 9.71462 82.9683 9.84474 82.9738 9.98255C82.9702 10.12 82.9118 10.2504 82.8113 10.3452C82.7108 10.44 82.5764 10.4915 82.4376 10.4883C82.3689 10.4909 82.3004 10.48 82.236 10.4563C82.1716 10.4327 82.1125 10.3967 82.0622 10.3504C82.0118 10.3041 81.9712 10.2484 81.9426 10.1866C81.914 10.1247 81.898 10.0579 81.8955 9.98991C81.8986 9.85224 81.9566 9.72138 82.0567 9.62582C82.1569 9.53026 82.2911 9.47775 82.4302 9.47973Z" fill="white"/>
<path fill-rule="evenodd" clip-rule="evenodd" d="M9.9419 57.8348L9.1007 50.9981L7.7233 57.8348H5.81166L4.28176 50.9981L3.36481 57.8348H0L1.95002 44.2393H5.42894L6.69024 50.2436L8.0283 44.2393H11.3931L13.3038 57.8348H9.9419ZM21.5249 44.2393V47.6547H18.1227V49.4043H20.5312V52.8226H18.1227V54.4524H21.5249V57.8348H14.7589V44.2374L21.5249 44.2393ZM23.3598 44.2393H30.7761V47.9321H28.7503V57.8348H25.3482V47.9371H23.3588V44.2443L23.3598 44.2393ZM32.0374 57.8348L35.3619 44.2374H39.2973L42.6267 57.8348H39.2973L38.7631 55.8866H35.8951L35.4012 57.8348H32.0374ZM38.1541 53.1839L37.3512 49.7266L36.4717 53.1839H38.1541ZM50.8459 44.2393L53.522 57.8348H50.1198L48.6666 47.6986H48.399L46.9085 57.8348H43.5436L46.144 44.2393H50.8459ZM61.7411 44.2393L64.4546 57.8348H61.0524L59.5993 47.6986H59.3326L57.8411 57.8348H54.4773L57.115 44.2393H61.7411ZM75.8103 44.2393V57.8348H72.4081V51.594L69.2716 57.8348H65.9078V44.2374H69.2716V50.7965L72.6354 44.2374L75.8103 44.2393ZM81.621 44.2393V49.4082H84.179V44.2393H87.5418V57.8348H84.181V52.8246H81.6229V57.8348H78.2581V44.2374L81.621 44.2393ZM95.0398 44.2393C95.9568 44.2393 96.6829 44.5976 97.2181 45.2374C97.7523 45.9131 98.0209 46.7874 98.0209 47.8204C98.0209 48.6557 97.9068 49.2915 97.6756 49.7686C97.4473 50.2067 97.1423 50.5241 96.7596 50.6428C97.3716 50.8015 97.8301 51.1608 98.2118 51.6768C98.6329 52.2757 98.8228 53.0292 98.8228 53.9035C98.8228 55.1351 98.5561 56.1291 97.9835 56.8048C97.3716 57.5204 96.5688 57.8378 95.4983 57.8378H89.8785V44.2374L95.0398 44.2393ZM93.2807 47.1816V49.1298H93.8543C94.3511 49.1298 94.6187 48.8114 94.6187 48.1767C94.6187 47.499 94.3511 47.1786 93.8543 47.1786L93.2807 47.1816ZM93.2807 52.3485V54.3366H94.1603C94.6955 54.3366 95.0015 54.0192 95.0015 53.3386C95.0015 53.0212 94.9247 52.7817 94.7712 52.623C94.6111 52.4528 94.392 52.3526 94.1603 52.3435L93.2807 52.3485ZM107.35 44.2393V47.6547H103.948V49.4043H107.312V52.8226H103.948V54.4524H107.35V57.8348H100.583V44.2374L107.35 44.2393ZM115.072 48.6138C114.8 48.6041 114.53 48.6602 114.284 48.7775C114.038 48.8948 113.823 49.07 113.656 49.2885C113.35 49.7266 113.199 50.3225 113.199 51.0381C113.199 51.7137 113.35 52.3096 113.696 52.7867C114.001 53.2238 114.46 53.4633 115.073 53.4633C115.455 53.4633 115.723 53.4633 115.913 53.3825C116.114 53.3468 116.307 53.2794 116.487 53.1829V57.8348C116.338 57.8896 116.184 57.9297 116.028 57.9546C115.711 57.9944 115.392 58.0081 115.073 57.9955C113.315 57.9955 111.899 57.3178 110.829 55.8477C109.874 54.5352 109.415 52.9463 109.415 51.0381C109.415 49.1697 109.874 47.5788 110.829 46.2674C111.861 44.8362 113.276 44.1206 115.073 44.1206C115.341 44.112 115.609 44.1253 115.875 44.1605C116.075 44.2273 116.28 44.2803 116.487 44.3192V48.9312C116.338 48.8542 116.185 48.7875 116.028 48.7316C115.716 48.6505 115.395 48.6106 115.073 48.6128L115.072 48.6138ZM118.284 44.2393H125.734V47.9321H123.712V57.8348H120.306V47.9371H118.281V44.2443L118.284 44.2393ZM131.204 49.2885H133.27C134.225 49.2885 135.028 49.6458 135.64 50.3614C136.328 51.1179 136.634 52.111 136.634 53.4224C136.634 54.7339 136.328 55.8078 135.678 56.6421C135.028 57.4406 134.225 57.8398 133.27 57.8398H127.798V44.2374H135.635V47.1008H131.201V49.2865L131.204 49.2885ZM131.204 52.587V54.5352H132.046C132.618 54.5352 132.886 54.2188 132.886 53.5372C132.886 53.2185 132.81 52.9799 132.657 52.8216C132.577 52.7399 132.482 52.6763 132.377 52.635C132.271 52.5937 132.159 52.5757 132.046 52.5821L131.204 52.587ZM137.7 57.8348L141.028 44.2374H144.928L148.25 57.8348H144.925L144.428 55.8866H141.52L141.028 57.8348H137.7ZM143.778 53.104L142.975 49.8105L142.09 53.104H143.778ZM153.374 44.2393V49.4082H155.895V44.2393H159.26V57.8348H155.895V52.8246H153.374V57.8348H149.971V44.2374L153.374 44.2393ZM165.033 44.2393V49.1697L167.364 44.2393H170.839L167.857 50.561L170.957 57.8348H167.478L165.035 51.9902V57.8348H161.669V44.2374L165.033 44.2393Z" fill="white"/>
</svg>

<svg xmlns="http://www.w3.org/2000/svg" width="171" height="58" fill="none"><path fill="#fff" fill-rule="evenodd" d="M86.174 0c8.623.317 15.504 7.337 15.563 15.95.063 8.847-7.191 16.125-16.145 16.187-8.954.062-16.31-7.11-16.372-15.964C69.16 7.545 76.05.42 84.688.006l.02 4.57c-2.969.194-5.752 1.502-7.781 3.657a11.51 11.51 0 0 0-3.14 7.941 11.422 11.422 0 0 0 1.175 4.957 11.536 11.536 0 0 0 3.218 3.971l4.411-11.501-3.062.024s-.605-.118-.949.165l-.728.691s-.056-1.894.028-2.095c.085-.245.331-2.141 1.192-3.113.856-.933 2.234-1.064 2.234-1.064l9.793-.067-1.413 1.462 3.401 15.217a11.527 11.527 0 0 0 3.006-3.962c.7-1.521 1.056-3.175 1.045-4.846a11.513 11.513 0 0 0-3.225-7.87A11.74 11.74 0 0 0 86.13 4.57L86.177 0h-.003ZM82.43 9.48a.532.532 0 0 1 .376.14.521.521 0 0 1 .168.363.517.517 0 0 1-.163.362.527.527 0 0 1-.373.143.526.526 0 0 1-.495-.301.514.514 0 0 1-.047-.197.52.52 0 0 1 .16-.364.53.53 0 0 1 .374-.146ZM9.942 57.835 9.1 50.998l-1.378 6.837H5.812l-1.53-6.837-.917 6.837H0l1.95-13.596h3.479l1.261 6.005 1.338-6.005h3.365l1.91 13.596H9.943Zm11.583-13.596v3.416h-3.402v1.75h2.408v3.418h-2.408v1.63h3.402v3.382h-6.766V44.237l6.766.002Zm1.835 0h7.416v3.693H28.75v9.903h-3.402v-9.898h-1.99v-3.693l.002-.005Zm8.677 13.596 3.325-13.598h3.935l3.33 13.598h-3.33l-.534-1.948h-2.868l-.494 1.948h-3.364Zm6.117-4.651-.803-3.457-.88 3.457h1.683Zm12.692-8.945 2.676 13.596H50.12l-1.453-10.136h-.268l-1.49 10.136h-3.365l2.6-13.596h4.702Zm10.895 0 2.714 13.596h-3.403L59.6 47.699h-.266L57.84 57.835h-3.364l2.638-13.596h4.626Zm14.07 0v13.596h-3.403v-6.241l-3.136 6.24h-3.364V44.238h3.364v6.56l3.363-6.56 3.175.002Zm5.81 0v5.17h2.558v-5.17h3.363v13.596H84.18v-5.01h-2.558v5.01h-3.365V44.237l3.363.002Zm13.419 0c.917 0 1.643.359 2.178.998.534.676.803 1.55.803 2.583 0 .836-.114 1.471-.345 1.949-.229.438-.534.755-.916.874.612.158 1.07.518 1.452 1.034.42.599.61 1.352.61 2.227 0 1.231-.266 2.225-.838 2.9-.612.716-1.415 1.034-2.486 1.034h-5.62v-13.6l5.162.001Zm-1.76 2.943v1.948h.574c.497 0 .765-.319.765-.953 0-.678-.268-.998-.765-.998l-.573.003Zm0 5.166v1.989h.88c.535 0 .841-.318.841-.998 0-.318-.076-.557-.23-.716a.886.886 0 0 0-.61-.28l-.88.005Zm14.07-8.109v3.416h-3.402v1.75h3.364v3.418h-3.364v1.63h3.402v3.382h-6.767V44.237l6.767.002Zm7.722 4.375a1.69 1.69 0 0 0-.788.164 1.726 1.726 0 0 0-.628.51c-.306.439-.457 1.035-.457 1.75 0 .676.151 1.272.497 1.749.305.437.764.676 1.377.676.382 0 .65 0 .84-.08.201-.036.394-.104.574-.2v4.652a2.45 2.45 0 0 1-.459.12c-.317.04-.636.053-.955.04-1.758 0-3.174-.677-4.244-2.147-.955-1.313-1.414-2.902-1.414-4.81 0-1.868.459-3.46 1.414-4.77 1.032-1.432 2.447-2.147 4.244-2.147a4.91 4.91 0 0 1 .802.04c.2.066.405.12.612.158v4.612a3.71 3.71 0 0 0-.459-.2 3.695 3.695 0 0 0-.955-.118h-.001Zm3.212-4.375h7.45v3.693h-2.022v9.903h-3.406v-9.898h-2.025v-3.693l.003-.005Zm12.92 5.05h2.066c.955 0 1.758.357 2.37 1.072.688.757.994 1.75.994 3.061 0 1.312-.306 2.386-.956 3.22-.65.799-1.453 1.198-2.408 1.198h-5.472V44.237h7.837v2.864h-4.434v2.185l.003.002Zm0 3.298v1.948h.842c.572 0 .84-.316.84-.998 0-.319-.076-.557-.229-.715a.786.786 0 0 0-.611-.24l-.842.005Zm6.496 5.248 3.328-13.598h3.9l3.322 13.598h-3.325l-.497-1.948h-2.908l-.492 1.948H137.7Zm6.078-4.731-.803-3.294-.885 3.294h1.688Zm9.596-8.865v5.17h2.521v-5.17h3.365v13.596h-3.365v-5.01h-2.521v5.01h-3.403V44.237l3.403.002Zm11.659 0v4.93l2.331-4.93h3.475l-2.982 6.322 3.1 7.274h-3.479l-2.443-5.845v5.845h-3.366V44.237l3.364.002Z" clip-rule="evenodd"/></svg>
